X: 1653
T: The Honeysuckle
M:C|
L:1/8
B:O'Neill's 1653
N:"collected by Carey"
K:D
(3ABc \
| d2 cA (3Bcd AF | DFAF GBAG | FAdA FAdf | edcB ABce |
| d2cA (3Bcd AF | DFAF GBAG | FAdB AGFE | D2 DDD2 :|
|:(3ABc \
| d2 d-e fdec | defg a2 a-f | geeg fddf | edcB ABce |
| d2cA (3Bcd AF | DFAF GBAG | FAdB AGFE | D2DDD2 :|


